Dominus_Dark_Funeral/symbolic/places/user-bookmarks-symbolic.svg

<svg xmlns="http://www.w3.org/2000/svg" width="24" height="24"><path d="M19.28 4.9a10.13 10.13 0 0 0-7.21-2.98c-2.73 0-5.29 1.06-7.21 2.99a10.13 10.13 0 0 0-3 7.2c0 2.73 1.07 5.3 3 7.22a10.13 10.13 0 0 0 7.2 2.99c2.73 0 5.3-1.06 7.22-2.99a10.13 10.13 0 0 0 2.99-7.21c0-2.73-1.06-5.29-2.99-7.21zm-7.21-1.65c1.61 0 3.12.43 4.43 1.19l-4.43 3.21-4.43-3.21a8.82 8.82 0 0 1 4.43-1.2zm3.11 6.67L13.2 8.48l3.2-2.33zm.7 2.15l3.2 2.33h-3.96zM8.95 9.92L7.73 6.15l3.2 2.33zm.06 4.48H5.05l3.2-2.33zm3.06-5.1l2.68 1.95-1.02 3.15H10.4L9.4 11.25zM3.2 12.12a8.85 8.85 0 0 1 2.93-6.59l1.7 5.2-4.44 3.23c-.12-.6-.2-1.21-.2-1.84zm.77 3.6h5.47l1.7 5.22a8.9 8.9 0 0 1-7.17-5.21zm6.87 0h2.45l-1.22 3.78zM13 20.95l1.7-5.21h5.47a8.9 8.9 0 0 1-7.17 5.2zm3.31-10.2l1.7-5.2a8.85 8.85 0 0 1 2.74 8.42z" fill="gray" stroke-width="1.01"/></svg>

<?xml version="1.0" encoding="UTF-8" standalone="no"?>
<svg
   xmlns:dc="http://purl.org/dc/elements/1.1/"
   xmlns:cc="http://creativecommons.org/ns#"
   xmlns:rdf="http://www.w3.org/1999/02/22-rdf-syntax-ns#"
   xmlns:svg="http://www.w3.org/2000/svg"
   xmlns="http://www.w3.org/2000/svg"
   xmlns:sodipodi="http://sodipodi.sourceforge.net/DTD/sodipodi-0.dtd"
   xmlns:inkscape="http://www.inkscape.org/namespaces/inkscape"
   width="24"
   height="24"
   version="1.1"
   id="svg4"
   sodipodi:docname="user-bookmarks-symbolic.svg"
   inkscape:version="0.92.4 (5da689c313, 2019-01-14)">
  <metadata
     id="metadata10">
    <rdf:RDF>
      <cc:Work
         rdf:about="">
        <dc:format>image/svg+xml</dc:format>
        <dc:type
           rdf:resource="http://purl.org/dc/dcmitype/StillImage" />
        <dc:title></dc:title>
      </cc:Work>
    </rdf:RDF>
  </metadata>
  <defs
     id="defs8" />
  <sodipodi:namedview
     pagecolor="#ffffff"
     bordercolor="#666666"
     borderopacity="1"
     objecttolerance="10"
     gridtolerance="10"
     guidetolerance="10"
     inkscape:pageopacity="0"
     inkscape:pageshadow="2"
     inkscape:window-width="1112"
     inkscape:window-height="480"
     id="namedview6"
     showgrid="false"
     inkscape:zoom="9.8333333"
     inkscape:cx="1.0677966"
     inkscape:cy="12"
     inkscape:window-x="0"
     inkscape:window-y="25"
     inkscape:window-maximized="0"
     inkscape:current-layer="svg4" />
  <path
     d="M 19.28,4.9 A 10.13,10.13 0 0 0 12.07,1.92 c -2.73,0 -5.29,1.06 -7.21,2.99 a 10.13,10.13 0 0 0 -3,7.2 c 0,2.73 1.07,5.3 3,7.22 a 10.13,10.13 0 0 0 7.2,2.99 c 2.73,0 5.3,-1.06 7.22,-2.99 a 10.13,10.13 0 0 0 2.99,-7.21 c 0,-2.73 -1.06,-5.29 -2.99,-7.21 z M 12.07,3.25 c 1.61,0 3.12,0.43 4.43,1.19 L 12.07,7.65 7.64,4.44 a 8.82,8.82 0 0 1 4.43,-1.2 z M 15.18,9.92 13.2,8.48 16.4,6.15 Z m 0.7,2.15 3.2,2.33 H 15.12 Z M 8.95,9.92 7.73,6.15 10.93,8.48 Z M 9.01,14.4 H 5.05 l 3.2,-2.33 z m 3.06,-5.1 2.68,1.95 -1.02,3.15 H 10.4 l -1,-3.15 z M 3.2,12.12 A 8.85,8.85 0 0 1 6.13,5.53 l 1.7,5.2 -4.44,3.23 c -0.12,-0.6 -0.2,-1.21 -0.2,-1.84 z m 0.77,3.6 h 5.47 l 1.7,5.22 A 8.9,8.9 0 0 1 3.97,15.73 Z m 6.87,0 h 2.45 l -1.22,3.78 z m 2.16,5.23 1.7,-5.21 h 5.47 A 8.9,8.9 0 0 1 13,20.94 Z m 3.31,-10.2 1.7,-5.2 a 8.85,8.85 0 0 1 2.74,8.42 z"
     id="path2"
     inkscape:connector-curvature="0"
     style="fill:#808080;stroke-width:1.00999999" />
</svg>
